X: 27904
T: Mountain Lark, The
R: reel
M: 4/4
K: Eminor
|:E2 BA Bdef|dfBd AFDF|E2 BA Bdef|dBdF E/E/E E2:|
eB BA/B/ eBge|fdad bdad|eB BA/B/ eBge|dBdF E/E/E E2|
eB BA/B/ eBge|fdad bdad|gafa egde|BdAF E/E/E E2||

